packages/ffe-icons/icons/filled/md/circles_ext.svg

<svg xmlns="http://www.w3.org/2000/svg" height="24" viewBox="0 -960 960 960" width="24"><path d="M240-135.386q-59.653 0-102.134-42.48Q95.386-220.347 95.386-280t42.48-102.134q42.481-42.48 102.134-42.48t102.134 42.48q42.48 42.481 42.48 102.134t-42.48 102.134q-42.481 42.48-102.134 42.48Zm480 0q-59.653 0-102.134-42.48-42.48-42.481-42.48-102.134t42.48-102.134q42.481-42.48 102.134-42.48t102.134 42.48q42.48 42.481 42.48 102.134t-42.48 102.134q-42.481 42.48-102.134 42.48ZM480-371.693q-28.538 0-48.423-19.884-19.884-19.885-19.884-48.423t19.884-48.423q19.885-19.884 48.423-19.884t48.423 19.884q19.884 19.885 19.884 48.423t-19.884 48.423Q508.538-371.693 480-371.693Zm0-203.693q-59.653 0-102.134-42.48-42.48-42.481-42.48-102.134t42.48-102.134q42.481-42.48 102.134-42.48t102.134 42.48q42.48 42.481 42.48 102.134t-42.48 102.134q-42.481 42.48-102.134 42.48Z"/></svg>

<svg xmlns="http://www.w3.org/2000/svg" height="24" viewBox="0 -960 960 960" width="24"><path d="M240-135.39q-59.65 0-102.13-42.48T95.39-280q0-59.65 42.48-102.13T240-424.61q59.65 0 102.13 42.48T384.61-280q0 59.65-42.48 102.13T240-135.39Zm480 0q-59.65 0-102.13-42.48T575.39-280q0-59.65 42.48-102.13T720-424.61q59.65 0 102.13 42.48T864.61-280q0 59.65-42.48 102.13T720-135.39Zm-240-236.3q-28.54 0-48.42-19.89-19.89-19.88-19.89-48.42 0-28.54 19.89-48.42 19.88-19.89 48.42-19.89 28.54 0 48.42 19.89 19.89 19.88 19.89 48.42 0 28.54-19.89 48.42-19.88 19.89-48.42 19.89Zm0-203.7q-59.65 0-102.13-42.48T335.39-720q0-59.65 42.48-102.13T480-864.61q59.65 0 102.13 42.48T624.61-720q0 59.65-42.48 102.13T480-575.39Z"/></svg>
